src/assets/icons/real-estate/key.svg

<svg width="48" height="48" viewBox="0 0 48 48" fill="none" xmlns="http://www.w3.org/2000/svg">
<path fill-rule="evenodd" clip-rule="evenodd" d="M17.7471 21.8194C15.6711 21.8194 13.6241 22.6254 12.0931 24.1554C8.97413 27.2744 8.97413 32.3504 12.0931 35.4694C15.2121 38.5894 20.2881 38.5894 23.4071 35.4694C25.9251 32.9514 26.4681 29.0204 24.7261 25.9104C24.6141 25.7094 24.5741 25.4744 24.6141 25.2474L25.0551 22.7624C25.1281 22.3494 25.4521 22.0254 25.8661 21.9534L28.6111 21.4674L29.0941 18.7234C29.1671 18.3094 29.4921 17.9854 29.9061 17.9134L32.6491 17.4294L33.1311 14.6884C33.2041 14.2744 33.5281 13.9494 33.9421 13.8774L36.6341 13.4014L37.0681 10.4954L33.8081 10.9814L22.3681 22.4224C22.0671 22.7224 21.6101 22.8014 21.2261 22.6154C20.1161 22.0794 18.9271 21.8194 17.7471 21.8194ZM17.7501 39.8084C15.1891 39.8084 12.6281 38.8334 10.6791 36.8834C6.78013 32.9844 6.78013 26.6404 10.6791 22.7414C13.5111 19.9114 17.7521 19.0624 21.4361 20.5244L32.6271 9.33436C32.7781 9.18236 32.9751 9.08436 33.1861 9.05136L38.1091 8.31736C38.4221 8.27536 38.7401 8.37536 38.9631 8.59936C39.1881 8.82336 39.2921 9.14036 39.2461 9.45436L38.5331 14.2294C38.5361 14.3354 38.5221 14.4404 38.4901 14.5434C38.3771 14.8984 38.0901 15.1754 37.7231 15.2404L34.9791 15.7244L34.4971 18.4654C34.4241 18.8814 34.1011 19.2054 33.6861 19.2774L30.9421 19.7604L30.4591 22.5054C30.3861 22.9194 30.0621 23.2434 29.6481 23.3154L26.9021 23.8004L26.6441 25.2554C28.6091 29.0894 27.8841 33.8214 24.8211 36.8834C22.8721 38.8334 20.3111 39.8084 17.7501 39.8084ZM15.7505 28.8126C16.8535 28.8126 17.7505 29.7096 17.7505 30.8126C17.7505 31.9156 16.8535 32.8126 15.7505 32.8126C14.6475 32.8126 13.7505 31.9156 13.7505 30.8126C13.7505 29.7096 14.6475 28.8126 15.7505 28.8126ZM15.7505 34.8126C17.9565 34.8126 19.7505 33.0186 19.7505 30.8126C19.7505 28.6066 17.9565 26.8126 15.7505 26.8126C13.5445 26.8126 11.7505 28.6066 11.7505 30.8126C11.7505 33.0186 13.5445 34.8126 15.7505 34.8126Z" fill="#253238"/>
</svg>

<svg width="48" height="48" viewBox="0 0 48 48" fill="none" xmlns="http://www.w3.org/2000/svg"><path fill-rule="evenodd" clip-rule="evenodd" d="M17.747 21.82a7.994 7.994 0 00-5.654 2.335c-3.119 3.12-3.119 8.195 0 11.314 3.12 3.12 8.195 3.12 11.314 0a8.023 8.023 0 001.32-9.559c-.113-.2-.153-.436-.113-.663l.441-2.485a.997.997 0 01.811-.809l2.745-.486.483-2.744a.998.998 0 01.812-.81l2.743-.484.482-2.74a.998.998 0 01.811-.812l2.692-.476.434-2.906-3.26.486-11.44 11.441a1 1 0 01-1.142.193 7.99 7.99 0 00-3.479-.796zm.003 17.988a9.966 9.966 0 01-7.07-2.925c-3.9-3.899-3.9-10.243 0-14.142a10.01 10.01 0 0110.756-2.217l11.191-11.19c.151-.152.348-.25.56-.283l4.922-.734a1 1 0 011.137 1.137l-.713 4.775a1.001 1.001 0 01-.81 1.011l-2.744.484-.482 2.741a.996.996 0 01-.81.812l-2.745.483-.483 2.745a.997.997 0 01-.81.81l-2.747.485-.258 1.455c1.965 3.834 1.24 8.566-1.823 11.628a9.966 9.966 0 01-7.07 2.925zm-2-10.995c1.104 0 2 .897 2 2s-.896 2-2 2c-1.102 0-2-.897-2-2s.898-2 2-2zm0 6c2.206 0 4-1.794 4-4s-1.794-4-4-4-4 1.794-4 4 1.794 4 4 4z" fill="#253238"/></svg>
